src/images/svg/symbols/markets-stocks-and-indices/american-stocks/stocks-walt-disney-company.svg

<svg width="32" height="32" viewBox="0 0 32 32" fill="none" xmlns="http://www.w3.org/2000/svg">
<path d="M0 16C0 7.16344 7.16344 0 16 0C24.8366 0 32 7.16344 32 16C32 24.8366 24.8366 32 16 32C7.16344 32 0 24.8366 0 16Z" fill="#1942C8"/>
<path fill-rule="evenodd" clip-rule="evenodd" d="M22.4102 12.278C24.0799 13.6409 26.242 15.9671 25.978 18.6358C25.6497 20.7764 23.4092 22.3391 21.5111 22.8457C19.5351 23.3499 17.4667 23.3695 15.4815 22.9028C15.3531 23.2453 15.2247 23.6592 14.8322 23.8019C14.7023 23.8454 14.5639 23.857 14.4285 23.8359C14.2932 23.8148 14.1649 23.7616 14.0544 23.6806C13.4907 23.1526 13.9474 22.1393 13.1339 21.8182C11.392 21.1094 9.93932 19.8351 9.00957 18.2005C8.97133 18.0511 8.96952 17.8947 9.00429 17.7444C9.03906 17.5942 9.10939 17.4545 9.20937 17.3371C10.5148 16.4272 12.0199 15.8447 13.5977 15.6388C13.6905 15.6388 13.6548 15.5461 13.7262 15.5104C13.7449 14.4383 13.9032 13.3733 14.1971 12.3422C14.2369 12.2779 14.3006 12.232 14.3742 12.2146C14.4478 12.1972 14.5252 12.2098 14.5896 12.2494C15.5886 13.0129 15.1176 14.44 15.5458 15.4676C17.4438 15.5603 19.3419 15.646 20.8403 16.7163C21.065 16.9227 21.228 17.1874 21.3112 17.4809C21.3943 17.7745 21.3943 18.0853 21.3113 18.3789C21.2083 18.6078 21.045 18.8045 20.8389 18.9478C20.6328 19.0911 20.3915 19.1756 20.1411 19.1923C19.8128 19.1923 19.1992 19.1923 19.2348 18.9711C19.2705 18.7499 20.3409 18.3147 20.0126 17.9793C19.5417 17.4941 17.1584 17.2015 15.7313 17.0231C15.5458 16.9874 15.3816 17.0231 15.3816 17.2372C15.2764 18.6402 15.3074 20.0501 15.4744 21.4472C15.4885 21.4983 15.5157 21.5449 15.5532 21.5824C15.5907 21.62 15.6373 21.6471 15.6885 21.6612C18.2715 22.0822 21.0045 21.8468 23.0238 20.3626C23.4622 20.0047 23.7939 19.5332 23.9826 18.9997C24.1714 18.4662 24.21 17.891 24.0942 17.3371C23.2807 14.069 19.8699 12.0996 17.0656 10.8294C14.2427 9.58894 11.1684 9.02687 8.08909 9.18826C7.57533 9.18826 6.75474 9.40233 6.75474 9.58786C6.75474 9.77338 7.67522 9.70916 7.56105 10.0588C7.44689 10.4084 6.50499 10.2015 6.2267 10.1088C5.94842 10.016 5.97696 9.62353 6.04831 9.3952C6.76187 8.15361 8.71702 8.05371 9.6161 8.00376C14.2445 7.91421 18.7617 9.42666 22.403 12.2851L22.4102 12.278ZM13.5407 17.123C12.2776 17.1022 11.0202 17.2977 9.82303 17.701C9.58756 17.7866 9.30213 18.0435 9.48052 18.3503C9.96639 18.9649 10.5675 19.4787 11.2501 19.8631C11.9265 20.3093 12.6785 20.6285 13.4693 20.805C13.6295 19.6229 13.6844 18.429 13.6334 17.2372C13.5621 17.2372 13.6334 17.1302 13.5407 17.0945V17.123Z" fill="white"/>
</svg>

<svg width="32" height="32" fill="none" xmlns="http://www.w3.org/2000/svg"><path d="M0 16C0 7.163 7.163 0 16 0s16 7.163 16 16-7.163 16-16 16S0 24.837 0 16Z" fill="#1942C8"/><path fill-rule="evenodd" clip-rule="evenodd" d="M22.41 12.278c1.67 1.363 3.832 3.69 3.568 6.358-.328 2.14-2.569 3.703-4.467 4.21a12.665 12.665 0 0 1-6.03.057c-.128.342-.256.756-.649.899a.856.856 0 0 1-.778-.121c-.563-.528-.107-1.542-.92-1.863a8.377 8.377 0 0 1-4.124-3.617.964.964 0 0 1 .2-.864 9.919 9.919 0 0 1 4.388-1.698c.092 0 .057-.093.128-.129.019-1.072.177-2.137.471-3.168a.286.286 0 0 1 .393-.093c.999.764.528 2.191.956 3.219 1.898.092 3.796.178 5.294 1.248a1.649 1.649 0 0 1 .471 1.663 1.385 1.385 0 0 1-1.17.813c-.328 0-.942 0-.906-.22.035-.222 1.106-.657.778-.993-.471-.485-2.855-.777-4.282-.956-.185-.036-.35 0-.35.214a21.761 21.761 0 0 0 .093 4.21.307.307 0 0 0 .214.214c2.583.421 5.316.186 7.336-1.298a3.09 3.09 0 0 0 1.07-3.026c-.813-3.268-4.224-5.237-7.028-6.508a19.744 19.744 0 0 0-8.977-1.64c-.514 0-1.334.213-1.334.399 0 .185.92.121.806.47-.114.35-1.056.143-1.334.05-.279-.092-.25-.484-.179-.713.714-1.241 2.669-1.341 3.568-1.391a20.08 20.08 0 0 1 12.787 4.281l.007-.007Zm-8.87 4.845c-1.262-.02-2.52.175-3.717.578-.235.086-.52.343-.342.65a6.023 6.023 0 0 0 1.77 1.512 6.668 6.668 0 0 0 2.218.942c.16-1.182.215-2.376.164-3.568-.07 0 0-.107-.092-.142v.028Z" fill="#fff"/></svg>
